X:1
T:James Gibb editions
T:Thou, who didst stoop below - Barnby
%%score [ ( 1 2 ) ( 3 4 ) ]
L:1/8
Q:1/4=72
M:4/4
K:D
V:1 treble nm="Midi_74"
V:2 treble 
V:3 bass nm="Midi_74"
V:4 bass 
V:1
"^Kenosis (66. 10. 66. 10)""^Sarah Elizabeth Miles\n(1807-77)""^Thou, who didst stoop below""^Joseph Barnby\n(1838-96)" A2 | %1
 A2"^1" G2 F2 E2 | A6 || A2 | B2 A2 G2 F2 | G6 || A2 |!<(! F2 A2 B2!<)! d2 | c2 A2 A2 ^G2 | A6 || %10
 A2 |!<(! A2 B2 c2!<)!"^1" d2 | B6 || B2 | B2 c2 d2"^I" e2 | c6 || A2 | d2 c2 B2 F2 | A2 G2 F3 E | %19
 D6 || G4 F4 |] %21
V:2
 F2 | E2 D2 D2 C2 | D6 || =C2 | B,2 ^D2 E2- F2 | E6 || E2 | D2 E2 F2 F2 | E2 E2 E2 E2 | E6 || C2 | %11
 D2 D2 G2 F2 | D6 || ^D2 | E2 E2 F2 ^G2 | (A2 !courtesy!=G2 F2) || E2 | D2 E2 D2 =C2 | %18
 B,2 E2 ^C2 C2 | D6 || D4 D4 |] %21
V:3
 D2 | C2 B,2 A,2 A,2 | A,6 || G,2 | F,2 B,2 B,2 B,2 | B,6 || A,2 | A,2 A,2 A,2 A,2 | %8
 A,2 C2 B,2 D2 | C6 || A,2 | %11
"^1. Thou who didst stoop below\nTo drain the cup of woe,\nWearing the form of frail mortality;\nThy blessed labours done,\nThy crown of victory won,\nHast passed from earth, passed to Thy home on high.\n\n2. Our eyes behold Thee not,\nYet hast Thou not forgot\nThose who have placed their hope, their trust, in Thee;\nBefore Thy Father's face\nThou hast prepared a place,\nThat where Thou art, there they may also be." A,2 A,2 A,2 A,2 | %12
 B,6 || A,2 | ^G,2 G,2 A,2 B,2 | C6 || %16
"^3. It was no path of flowers,\nWhich, through this world of ours,\nBeloved of the Father, Thou didst tread;\nAnd shall we in dismay\nShrink from the narrow way,\nWhen clouds and darkness are around is spread.\n\n4. O Thou who art our life\nBe with us through the strife;\nThy holy head by earth's fierce storms was bowed:\nRaise Thou our eyes above,\nTo see a Father's love\nBeam, like the bow of promise, through the cloud.\n" C2 | %17
 A,2 ^A,2 B,2 =A,2 | G,2 B,2 A,2 G,2 | F,6 || B,4 A,4 |] %21
V:4
 D,2 | D,2 D,2 D,2 G,2 | F,6 || E,2 | ^D,2 B,,2 C,2 D,2 | E,6 || C,2 | D,2 C,2 D,2 B,,2 | %8
 E,2 E,2 E,2 E,2 | A,6 || G,2 | F,2 F,2 E,2 D,2 | (G,2 A,2 G,2) || F,2 | E,2 E,2 E,2 E,2 | %15
 (A,2 B,2 A,2) || G,2 | F,2 F,2 G,2 ^D,2 | E,2 G,,2 A,,2 A,,2 | D,6 || G,,4 D,4 |] %21

